X:1
T:[ID 1-59]
T:[ID 1-59]
T:Bezeichnung standardisiert: Menuett Men.
T:Urheber unbekannt Datum in der hier transkribierten schriftlichen Quelle: vermutlich vor 1767
C:Urheber unbekannt
C:Datum in der hier transkribierten schriftlichen Quelle: vermutlich vor 1767
L:1/8
M:3/4
K:G
V:1 treble 
V:1
 G4 A2 | Bc d2 d2 | ef g2 f2 | g4 a2 | bgfefg | a2 d^c d2 | egfed^c | d6 :: d4 e2 | fg a2 a2 | %10
 g2 fe^de | f2 B4 | efge^dB | efge^dB | e2 G2 F2 | E4 (3DEF | G4 A2 | Bc d2 d2 | c2 B2 AG | FE D4 | %20
 ABcAFD | ABcAFD | AcBcdF | G6 :| %24

